X: 76
T:La Bobine
M:3/8
L:1/8
C:Patrick Bouffard
R:Bourree
Z:Steve Mansfield
K:G
BAG | B/A/G2 | B/A/G/A/B/c/ | da/f/a/d/ | AGF | A/G/F2 |
|1 d/e/d/c/A/c/ | B2G :|2 d/e/d/c/B/A/ | G3 |: B>AG | F/G/A/B/c/d/ |
edB | cBG | A/B/AG | F>DF/A/ | d^cd |1 B2G :|2 G3 ||
<end>
<start>
